img/99.svg

<svg width="147" height="47" viewBox="0 0 147 47" fill="none" xmlns="http://www.w3.org/2000/svg">
<path d="M19.76 0.560059C8.55997 0.560059 0.94397 7.53606 0.94397 17.3281C0.94397 26.5441 7.72797 33.0081 16.88 33.0081C18.224 33.0081 19.376 32.8161 20.464 32.4961L8.11197 46.0001H20.272L31.152 33.2001C33.904 29.9361 38.64 24.4321 38.64 17.0081C38.64 7.40806 30.96 0.560059 19.76 0.560059ZM19.824 25.2001C15.216 25.2001 12.016 22.0641 12.016 17.4561C12.016 12.8481 15.28 9.71206 19.824 9.71206C24.496 9.71206 27.632 12.9121 27.632 17.4561C27.632 22.0001 24.496 25.2001 19.824 25.2001ZM62.51 0.560059C51.31 0.560059 43.694 7.53606 43.694 17.3281C43.694 26.5441 50.478 33.0081 59.63 33.0081C60.974 33.0081 62.126 32.8161 63.214 32.4961L50.862 46.0001H63.022L73.902 33.2001C76.654 29.9361 81.39 24.4321 81.39 17.0081C81.39 7.40806 73.71 0.560059 62.51 0.560059ZM62.574 25.2001C57.966 25.2001 54.766 22.0641 54.766 17.4561C54.766 12.8481 58.03 9.71206 62.574 9.71206C67.246 9.71206 70.382 12.9121 70.382 17.4561C70.382 22.0001 67.246 25.2001 62.574 25.2001ZM99.768 24.6881C106.936 24.6881 112.312 19.5041 112.312 12.6561C112.312 5.74406 106.936 0.560059 99.768 0.560059C92.6 0.560059 87.288 5.74406 87.288 12.6561C87.288 19.5041 92.6 24.6881 99.768 24.6881ZM95.288 46.0001H105.656L138.552 1.20006H128.12L95.288 46.0001ZM99.768 17.0081C97.336 17.0081 95.608 15.2161 95.608 12.6561C95.608 10.0321 97.336 8.24006 99.768 8.24006C102.264 8.24006 103.992 10.0321 103.992 12.6561C103.992 15.2161 102.264 17.0081 99.768 17.0081ZM134.008 46.6401C141.176 46.6401 146.552 41.5201 146.552 34.6081C146.552 27.7601 141.176 22.5761 134.008 22.5761C126.904 22.5761 121.528 27.7601 121.528 34.6081C121.528 41.5201 126.904 46.6401 134.008 46.6401ZM134.008 39.0241C131.576 39.0241 129.848 37.1681 129.848 34.6081C129.848 32.0481 131.576 30.1921 134.008 30.1921C136.504 30.1921 138.232 32.0481 138.232 34.6081C138.232 37.1681 136.504 39.0241 134.008 39.0241Z" fill="#050038"/>
</svg>

<svg width="147" height="47" fill="none" xmlns="http://www.w3.org/2000/svg"><path d="M19.76.56C8.56.56.944 7.536.944 17.328c0 9.216 6.784 15.68 15.936 15.68a12.42 12.42 0 0 0 3.584-.512L8.112 46h12.16l10.88-12.8c2.752-3.264 7.488-8.768 7.488-16.192C38.64 7.408 30.96.56 19.76.56zm.064 24.64c-4.608 0-7.808-3.136-7.808-7.744s3.264-7.744 7.808-7.744c4.672 0 7.808 3.2 7.808 7.744S24.496 25.2 19.824 25.2zM62.51.56c-11.2 0-18.816 6.976-18.816 16.768 0 9.216 6.784 15.68 15.936 15.68a12.42 12.42 0 0 0 3.584-.512L50.862 46h12.16l10.88-12.8c2.752-3.264 7.488-8.768 7.488-16.192C81.39 7.408 73.71.56 62.51.56zm.064 24.64c-4.608 0-7.808-3.136-7.808-7.744s3.264-7.744 7.808-7.744c4.672 0 7.808 3.2 7.808 7.744S67.246 25.2 62.574 25.2zm37.194-.512c7.168 0 12.544-5.184 12.544-12.032 0-6.912-5.376-12.096-12.544-12.096s-12.48 5.184-12.48 12.096c0 6.848 5.312 12.032 12.48 12.032zM95.288 46h10.368l32.896-44.8H128.12L95.288 46zm4.48-28.992c-2.432 0-4.16-1.792-4.16-4.352 0-2.624 1.728-4.416 4.16-4.416 2.496 0 4.224 1.792 4.224 4.416 0 2.56-1.728 4.352-4.224 4.352zm34.24 29.632c7.168 0 12.544-5.12 12.544-12.032 0-6.848-5.376-12.032-12.544-12.032-7.104 0-12.48 5.184-12.48 12.032 0 6.912 5.376 12.032 12.48 12.032zm0-7.616c-2.432 0-4.16-1.856-4.16-4.416 0-2.56 1.728-4.416 4.16-4.416 2.496 0 4.224 1.856 4.224 4.416 0 2.56-1.728 4.416-4.224 4.416z" fill="#050038"/></svg>
